X: 14595
T: Gan Ainm
R: barndance
M: 4/4
K: Dmajor
(3ABA (3gfe d2 F>G|A>FB>A G2 E>F|G>E (3ABc e2 (3GFE|F>DA>d f2 (3EFG|
A>Ff>e d2 F>G|A>FB>A G2 E>F|G2 B>d g2 (3fec|d2 D2 D2:|
a>fd>c d2 A2|d>AF>d B2 A2|e>dc>e A2 (3GFE|D2 (3EFG A2 f>g|
a>fd>c (3ded A2|d>AF>d (3BcB A2|E>FG>B A>G (3GFE|D2 d2 D2:|
A>BA>F A2 (3efg|a>ba>f d2 c>d|e>fe>d B>Gd>B|c>ed>B A2 (3EFG|
A2 (3BAF A2 f>g|a2 (3baf (3ded c>d|e>fe>d c>ed>B|A>ae>c d>A||
b2 g2 g>bd>b|a2 f2 f>ad>f|a>ge>c A>ce>g|b>af>d A2 (3def|
b>Bg>B d>Bd>b|a>Af>A d>A (3def|a>ge>c A>g (3gfe|d2 A2 D2:|

